packages/icons/src/assets/minimal/fullscreen-enter.svg

<svg width="18" height="18" viewBox="0 0 18 18" fill="none" xmlns="http://www.w3.org/2000/svg">
<path d="M15.25 2C15.6642 2 16 2.33579 16 2.75V7.25C16 7.66421 15.6642 8 15.25 8C14.8358 8 14.5 7.66421 14.5 7.25V3.5H10.75C10.3703 3.5 10.0565 3.21785 10.0068 2.85177L10 2.75C10 2.33579 10.3358 2 10.75 2H15.25Z" fill="black"/>
<path d="M14.7197 2.21967C15.0126 1.92678 15.4874 1.92678 15.7803 2.21967C16.0732 2.51256 16.0732 2.98744 15.7803 3.28033L11.2803 7.78033C10.9874 8.07322 10.5126 8.07322 10.2197 7.78033C9.92678 7.48744 9.92678 7.01256 10.2197 6.71967L14.7197 2.21967Z" fill="black"/>
<path d="M2.75 10C3.16421 10 3.5 10.3358 3.5 10.75V14.5H7.25C7.6297 14.5 7.94349 14.7822 7.99315 15.1482L8 15.25C8 15.6642 7.66421 16 7.25 16H2.75C2.33579 16 2 15.6642 2 15.25V10.75C2 10.3358 2.33579 10 2.75 10Z" fill="black"/>
<path d="M6.71967 10.2197C7.01256 9.92678 7.48744 9.92678 7.78033 10.2197C8.07322 10.5126 8.07322 10.9874 7.78033 11.2803L3.28033 15.7803C2.98744 16.0732 2.51256 16.0732 2.21967 15.7803C1.92678 15.4874 1.92678 15.0126 2.21967 14.7197L6.71967 10.2197Z" fill="black"/>
</svg>

<svg xmlns="http://www.w3.org/2000/svg" width="18" height="18" fill="currentColor" viewBox="0 0 18 18">
  <path d="M15.25 2a.75.75 0 0 1 .75.75v4.5a.75.75 0 0 1-1.5 0V3.5h-3.75a.75.75 0 0 1-.743-.648L10 2.75a.75.75 0 0 1 .75-.75z"/>
  <path d="M14.72 2.22a.75.75 0 1 1 1.06 1.06l-4.5 4.5a.75.75 0 1 1-1.06-1.06zM2.75 10a.75.75 0 0 1 .75.75v3.75h3.75a.75.75 0 0 1 .743.648L8 15.25a.75.75 0 0 1-.75.75h-4.5a.75.75 0 0 1-.75-.75v-4.5a.75.75 0 0 1 .75-.75"/>
  <path d="M6.72 10.22a.75.75 0 1 1 1.06 1.06l-4.5 4.5a.75.75 0 0 1-1.06-1.06z"/>
</svg>
